**kern	**kern	**kern	**kern
*staff4	*staff3	*staff2	*staff1
=1-	=1-	=1-	=1-
*clefF4	*clefGv2	*clefGv2	*clefG2
*k[]	*k[]	*k[]	*k[]
*met(C|)	*met(C|)	*met(C|)	*met(C|)
*M2/2	*M2/2	*M2/2	*M2/2
0r	0E	0r	0r
=2	=2	=2	=2
0r	1E	0r	0e
.	1E	.	.
=3	=3	=3	=3
0AA	1.A	0r	1e
.	.	.	1e
.	2A/	.	.
=4	=4	=4	=4
1AA	1A	0A	1.a
1AA	1A	.	.
.	.	.	2a/
=5	=5	=5	=5
!!linebreak:default
1.D	1F	1A	1a
.	1D	1A	1a
2D\	.	.	.
=6	=6	=6	=6
1D	2F/	1.d	1f
.	2G/	.	.
1D	1A	.	1d
.	.	2d\	.
=7	=7	=7	=7
2BB/	2D/	1d	2f/
2GG/	1G	.	2g/
1D	.	1d	1a
.	2F#/	.	.
=8	=8	=8	=8
1GG	1G	1B	1.dd
2r	2r	1G	.
[2G\	2d\	.	[2b\
=9	=9	=9	=9
!!linebreak:default
2G\]	2B\	2r	2b\]
2E\	2c\	2G/	4a/
.	.	.	4g/
1F	2.A/	2c\	1a
.	.	2d\	.
.	4B\	.	.
=10	=10	=10	=10
1.E	2c\	0e	2.g/
.	2B\	.	.
.	.	.	4a/
.	1G	.	2b\
2C/	.	.	[2cc\
=11	=11	=11	=11
1F	1A	2c\	4cc\]
.	.	.	4b\
.	.	2d\	1a
1E	1B	1e	.
.	.	.	2g#/
=12	=12	=12	=12
2F\	2A/	2c\	1a
2D\	1A	1d	.
1E	.	.	1r
.	2G/	2c#\	.
=13	=13	=13	=13
0D	1A	1d	1d
.	1r	1r	1d
=14	=14	=14	=14
!!pagebreak:default
0r	1D	0r	1.a
.	1D	.	.
.	.	.	2a/
=15	=15	=15	=15
0r	1.A	1D	1a
.	.	1D	1dd
.	2A/	.	.
=16	=16	=16	=16
1AA	2A/	2A/	1cc
.	1c	2A/	.
1AA	.	1A	2a/
.	4B\	.	[2cc\
.	4A/	.	.
=17	=17	=17	=17
1E	1.G	2r	2cc\]
.	.	1c	4b\
.	.	.	4a/
2E\	.	.	2g/
2C/	2E/	2A/	[2a/
=18	=18	=18	=18
2D\	2F/	2B\	2a/]
2E\	2G/	2c\	1g
1D	1A	1d	.
.	.	.	2f#/
=19	=19	=19	=19
1GG	1G	1B	1g
2r	2r	2r	2r
2C/	2E/	2c\	2g/
=20	=20	=20	=20
1C	1E	1c	1g
1C	1E	1c	1g
=21	=21	=21	=21
!!linebreak:default
1F	2D/	2.A/	1a
.	2F/	.	.
.	.	4B\	.
2E\	2G/	2c\	2g/
[2D\	[2A/	2d\	[2f/
=22	=22	=22	=22
2D\]	4A/]	2A/	2f/]
.	4G/	.	.
2C/	4F/	2c\	1e
.	4E/	.	.
1D	1F	1A	.
.	.	.	2d/
=23	=23	=23	=23
1AA	0E	1A	[0e
1r	.	1r	.
=24	=24	=24	=24
0C	1r	0r	0e]
.	[1G	.	.
=25	=25	=25	=25
1BB	1G]	0r	0r
1AA	1F	.	.
=26	=26	=26	=26
1.C	1E	0r	0r
.	1G	.	.
2C/	.	.	.
=27	=27	=27	=27
1C	2G/	0r	0r
.	1A	.	.
1D	.	.	.
.	[2B\	.	.
=28	=28	=28	=28
1E	2B\]	0r	0r
.	2c\	.	.
2F\	2A/	.	.
2E\	2c\	.	.
=29	=29	=29	=29
!!linebreak:default
2D\	2B\	0r	0r
1F	[2A/	.	.
.	4A/]	.	.
.	4B\	.	.
4E\	[2c\	.	.
4D\	.	.	.
=30	=30	=30	=30
0C	2c\]	1r	1g
.	4B\	.	.
.	4A/	.	.
.	1G	1c	2g/
.	.	.	2g/
=31	=31	=31	=31
0r	0r	2c\	2a/
.	.	2c\	2cc\
.	.	2d\	2b\
.	.	[2f\	[2a/
=32	=32	=32	=32
0r	0r	2f\]	2a/]
.	.	4e\	4g/
.	.	4d\	4f/
.	.	2c\	2e/
.	.	2d\	2a/
=33	=33	=33	=33
0r	0r	1e	2g/
.	.	.	2cc\
.	.	2d\	2b\
.	.	[2c\	[2a/
=34	=34	=34	=34
0r	0r	4c\]	2a/]
.	.	4B\	.
.	.	4A/	1g
.	.	4G/	.
.	.	1A	.
.	.	.	2f#/
=35	=35	=35	=35
1r	1G	0G	0g
1C	2G/	.	.
.	2G/	.	.
=36	=36	=36	=36
2C/	1A	0r	0r
2C/	.	.	.
1D	1B	.	.
=37	=37	=37	=37
!!pagebreak:default
1E	1.c	0r	0r
1F	.	.	.
.	2B\	.	.
=38	=38	=38	=38
2F\	2A/	0r	0r
2F\	1d	.	.
1E	.	.	.
.	2c\	.	.
=39	=39	=39	=39
1D	1B	0r	0r
2r	1A	.	.
2F\	.	.	.
=40	=40	=40	=40
2F\	2r	0r	0r
2E\	2c\	.	.
2F\	2c\	.	.
2D\	2B\	.	.
=41	=41	=41	=41
2.C/	2c\	0r	0r
.	2A/	.	.
4D\	.	.	.
4E\	4G/	.	.
4F\	4A/	.	.
[2G\	4B\	.	.
.	4c\	.	.
=42	=42	=42	=42
2G\]	2d\	0r	0r
4F\	1c	.	.
4E\	.	.	.
1D	.	.	.
.	2B\	.	.
=43	=43	=43	=43
1C	1c	0e	0cc
2r	2r	.	.
2C/	2G/	.	.
=44	=44	=44	=44
1C	1A	1e	1cc
1C	1G	1e	1cc
=45	=45	=45	=45
!!linebreak:default
1GG	1G	1d	2b\
.	.	.	[2dd\
1G	1r	1d	4dd\]
.	.	.	4cc\
.	.	.	4b\
.	.	.	4a/
=46	=46	=46	=46
2G\	1r	2d\	2b\
2G\	.	2d\	1cc
2G\	2r	2d\	.
2G\	[2G/	2d\	2b\
=47	=47	=47	=47
1C	2G/]	2c\	1cc
.	4F/	2e\	.
.	4E/	.	.
1D	2F/	1d	1a
.	2F/	.	.
=48	=48	=48	=48
1E	2G/	2B\	1g
.	2C/	1c	.
2.E\	2.G/	.	2g/
.	.	2B\	2g/
4D\	4F/	.	.
=49	=49	=49	=49
2C/	2E/	2A/	2a/
2BB/	1D	1G	2b\
1AA	.	.	1cc
.	2C/	2F#/	.
=50	=50	=50	=50
0GG	1D	0G	1b
.	1G	.	2r
.	.	.	2g/
=51	=51	=51	=51
0r	1E	1r	1g
.	1F	2r	1a
.	.	2c\	.
=52	=52	=52	=52
!!linebreak:default
0r	2E/	1c	2g/
.	2C/	.	1cc
.	1G	1d	.
.	.	.	2b\
=53	=53	=53	=53
2r	1C	1c	1cc
1C	.	.	.
.	1r	1e	2a/
2AA/	.	.	2cc\
=54	=54	=54	=54
2BB/	0r	2d\	2b\
2C/	.	1c	1a
1D	.	.	.
.	.	2B\	4g/
.	.	.	[4f/
=55	=55	=55	=55
[0C	1.G	0c	1e
.	.	.	2r
.	[2A/	.	2e/
=56	=56	=56	=56
0C]	2A/]	2r	2.e/
.	4G/	1c	.
.	4F/	.	4f/
.	1E	.	2g/
.	.	4B\	[2c/
.	.	4A/	.
=57	=57	=57	=57
!!pagebreak:default
1.C	1.E	2G/	4c/]
.	.	.	4d/
.	.	[2c\	4e/
.	.	.	4f/
.	.	4c\]	2g/
.	.	4d\	.
2AA/	2C/	2e\	2cc\
=58	=58	=58	=58
2BB/	2D/	2d\	2b\
2C/	2E/	2c\	1a
2D\	2F/	1B	.
2E\	2G/	.	2g#/
=59	=59	=59	=59
1AA	1E	1A	[0a
1r	1D	1d	.
=60	=60	=60	=60
1r	0r	1d	0a]
1D	.	1d	.
=61	=61	=61	=61
1D	0r	1.f	1r
1D	.	.	1a
.	.	4e\	.
.	.	4d\	.
=62	=62	=62	=62
!!linebreak:default
1.F	1r	0c	1a
.	1A	.	1a
4E\	.	.	.
4D\	.	.	.
=63	=63	=63	=63
0C	1A	0r	1.cc
.	1A	.	.
.	.	.	4b\
.	.	.	4a/
=64	=64	=64	=64
0r	1.c	1r	0g
.	.	1c	.
.	4B\	.	.
.	4A/	.	.
=65	=65	=65	=65
1r	0G	1d	0r
1C	.	1e	.
=66	=66	=66	=66
1D	0r	1f	1r
1E	.	2e\	1g
.	.	[2c\	.
=67	=67	=67	=67
!!linebreak:default
1F	1r	2c\]	1a
.	.	4B\	.
.	.	4A/	.
1E	1G	1G	1b
=68	=68	=68	=68
1C	1A	1r	1cc
2D\	1B	2r	2b\
[2E\	.	[2G/	[2g/
=69	=69	=69	=69
2E\]	1c	4G/]	2g/]
.	.	4F/	.
2AA/	.	2E/	2a/
2BB/	2B\	2D/	2g/
[2D\	2A/	2A/	[2f/
=70	=70	=70	=70
2D\]	2D/	2B\	2f/]
2C/	2E/	2c\	1e
1D	1F	[1A	.
.	.	.	2d/
=71	=71	=71	=71
0AA	0E	1A]	1e
.	.	2r	2r
.	.	2E/	2e/
=72	=72	=72	=72
0r	0r	2.G/	2e/
.	.	.	1g
.	.	4A/	.
.	.	4B\	.
.	.	4c\	.
.	.	[2d\	[2f/
=73	=73	=73	=73
0r	0r	2d\]	4f/]
.	.	.	4e/
.	.	1c	4d/
.	.	.	4c/
.	.	.	1d
.	.	2B\	.
=74	=74	=74	=74
0AA	0E	0c	1c
.	.	.	[1cc
=75	=75	=75	=75
!!pagebreak:default
1AA	1E	0r	2cc\]
.	.	.	4b\
.	.	.	4a/
1E	1G	.	1b
=76	=76	=76	=76
1.F	1.A	1c	0a
.	.	2c\	.
[2F\	[2A/	2d\	.
=77	=77	=77	=77
2F\]	2A/]	2c\	0r
4E\	4G/	1d	.
4D\	4F/	.	.
1E	1G	.	.
.	.	2c#\	.
=78	=78	=78	=78
!!linebreak:default
0D	0A	1d	0r
.	.	1r	.
=79	=79	=79	=79
1C	1r	1.e	0r
1AA	[1A	.	.
.	.	[2c\	.
=80	=80	=80	=80
1r	2A/]	2c\]	0r
.	1F	2A/	.
[1A	.	1A	.
.	2D/	.	.
=81	=81	=81	=81
2A\]	1D	1r	1.a
1F	.	.	.
.	1r	[1d	.
2D\	.	.	[2f/
=82	=82	=82	=82
1D	1.d	2d\]	2f/]
.	.	2d\	2d/
[1G	.	1B	1d
.	2d\	.	.
=83	=83	=83	=83
2G\]	1B	1G	1.g
2G\	.	.	.
1E	1G	[1c	.
.	.	.	2g/
=84	=84	=84	=84
1C	1.c	2c\]	1e
.	.	2A/	.
1F	.	1A	1c
.	2B\	.	.
=85	=85	=85	=85
!!pagebreak:default
2F\	1.A	1.d	1.f
[2F\	.	.	.
4F\]	.	.	.
4E\	.	.	.
2E\	2G/	[2c\	2g/
=86	=86	=86	=86
2D\	2F/	4c\]	1a
.	.	4B\	.
2C/	1E	1A	.
1BB	.	.	1dd
.	2D/	2G#/	.
=87	=87	=87	=87
0AA	0E	0A	0cc
=88	=88	=88	=88
0AA	0E	0A	0cc
=89	=89	=89	=89
1E	1G	1B	1b
1E	1G	2B\	1b
.	.	[2e\	.
=90	=90	=90	=90
0F	0A	2e\]	2a/
.	.	4d\	1cc
.	.	4c\	.
.	.	1d	.
.	.	.	4b\
.	.	.	4a/
=91	=91	=91	=91
0E	0B	0e	0g
=92	=92	=92	=92
1r	1r	1r	1r
1C	1c	1e	1g
=93	=93	=93	=93
!!linebreak:default
1F	1c	1f	1a
1G	1B	1d	1b
=94	=94	=94	=94
1C	2G/	2c\	1cc
.	[2A/	2e\	.
2D\	4A/]	2f\	2a/
.	4G/	.	.
[2F\	4F/	[2d\	[2a/
.	4E/	.	.
=95	=95	=95	=95
4F\]	2D/	2d\]	4a/]
4E\	.	.	4g/
2C/	1G	1c	4f/
.	.	.	4e/
1D	.	.	1f
.	2F/	2B\	.
=96	=96	=96	=96
1C	1G	1c	1e
2r	2r	2r	2r
2AA/	2E/	2c\	2a/
=97	=97	=97	=97
1E	1G	2B\	2b\
.	.	1e	1cc
1F	1A	.	.
.	.	2d\	4b\
.	.	.	4a/
=98	=98	=98	=98
1E	1B	1e	1g
2r	2r	2r	2r
2C/	2c\	2e\	2g/
=99	=99	=99	=99
1F	1c	1f	1a
1G	1B	1d	1b
=100	=100	=100	=100
1C	2G/	2c\	1cc
.	[2A/	2e\	.
2D\	4A/]	2f\	2a/
.	4G/	.	.
[2F\	4F/	[2d\	[2a/
.	4E/	.	.
=101	=101	=101	=101
!!pagebreak:default
4F\]	2D/	2d\]	4a/]
4E\	.	.	4g/
2C/	1G	1c	4f/
.	.	.	4e/
1D	.	.	1f
.	2F/	2B\	.
=102	=102	=102	=102
1.C	1G	1.c	1e
.	1r	.	1r
[2C/	.	4B\	.
.	.	[4A/	.
=103	=103	=103	=103
2C/]	1E	2G/	0r
4BB/	.	2A/	.
4AA/	.	.	.
1BB	1G	1D	.
=104	=104	=104	=104
0AA	1.A	1E	0r
.	.	1F	.
.	[2c\	.	.
=105	=105	=105	=105
0r	2c\]	0E	1e
.	4B\	.	.
.	4A/	.	.
.	1B	.	1g
=106	=106	=106	=106
1r	0A	0r	1.a
1AA	.	.	.
.	.	.	[2cc\
=107	=107	=107	=107
1C	0r	0r	2cc\]
.	.	.	4b\
.	.	.	4a/
[1D	.	.	1b
=108	=108	=108	=108
2D\]	1A	1r	0a
1F	.	.	.
.	1F	1A	.
4E\	.	.	.
4D\	.	.	.
=109	=109	=109	=109
!!linebreak:default
1E	1G	1c	0r
[1D	[1A	[1d	.
=110	=110	=110	=110
1D]	2A/]	2d\]	2.a/
.	2D/	1f	.
.	.	.	4b\
1r	2A/	.	2cc\
.	2B-\	4e\	[2dd\
.	.	[4d\	.
=111	=111	=111	=111
1r	1A	1d] 1e	2dd\]
.	.	.	2cc#\
[1G	[1B-	1d	1dd
=112	=112	=112	=112
2G\]	2B-\]	2r	2.d/
1F	1A	1d	.
.	.	.	4e/
.	.	.	2f/
2E\	2G/	[2c\	[2g/
=113	=113	=113	=113
1D	2A/	2c\]	2g/]
.	2F/	2B\	1f
1C	1G	1c	.
.	.	.	2e/
=114	=114	=114	=114
1.D	1.F	1A	1f
.	.	2B\	2r
[2C/	[2E/	2c\	2g/
=115	=115	=115	=115
2C/]	2E/]	2A/	2a/
2BB/	1D	1G	2b\
1AA	.	.	1cc
.	2C/	2F#/	.
=116	=116	=116	=116
1GG	1D	1G	1b
1r	1r	1r	1r
=117	=117	=117	=117
!!pagebreak:default
1.AA	1.E	1.A	1.e
2AA/	2E/	2A/	2e/
=118	=118	=118	=118
1AA	1E	1A	1e
1D	1F	1A	1d
=119	=119	=119	=119
1AA	1E	2A/	0e
.	.	2E/	.
1r	2r	2.G/	.
.	2E/	.	.
.	.	4A/	.
=120	=120	=120	=120
0r	2G/	2B\	2r
.	2A/	2c\	2e/
.	2B\	2d\	2g/
.	2c\	2e\	2a/
=121	=121	=121	=121
2r	2d\	2d\	2b\
2AA/	1e	4c\	1cc
.	.	4d\	.
2.C/	.	4e\	.
.	.	4f\	.
.	4d\	[2e\	4b\
4D\	4c\	.	4a/
=122	=122	=122	=122
2E\	2B\	2e\]	2g/
2F\	2A/	2d\	1a
1E	1B	1e	.
.	.	.	2g#/
=123	=123	=123	=123
1AA	0A	1c	[0a
2r	.	1r	.
2D\	.	.	.
=124	=124	=124	=124
2D\	2r	1r	0a]
2D\	2A/	.	.
2.F\	2A/	2r	.
.	2A/	2A/	.
4G\	.	.	.
=125	=125	=125	=125
!!linebreak:default
2A\	2.c\	2A/	0r
2A\	.	2A/	.
.	4d\	.	.
2A\	2e\	2.c\	.
4G\	2e\	.	.
4F\	.	4d\	.
=126	=126	=126	=126
2E\	2e\	2e\	0r
2E\	4d\	2e\	.
.	4c\	.	.
2E\	2B\	2e\	.
2E\	2B\	4d\	.
.	.	4c\	.
=127	=127	=127	=127
1.G	2B\	2B\	2r
.	2B\	2B\	2d/
.	[1d	2B\	2d/
4F\	.	2B\	2d/
4E\	.	.	.
=128	=128	=128	=128
0D	2d\]	1.d	2.f/
.	4c\	.	.
.	4B\	.	4g/
.	[1A	.	2a/
.	.	4c\	[2a/
.	.	4B\	.
=129	=129	=129	=129
2r	1A]	0A	2a/]
1AA	.	.	4g/
.	.	.	4f/
.	2r	.	1e
2AA/	[2E/	.	.
=130	=130	=130	=130
2.C/	2E/]	1r	2r
.	2E/	.	2cc\
4D\	.	.	.
2E\	2G/	2r	2b\
2F\	2A/	[2d\	[2a/
=131	=131	=131	=131
2G\	2B\	2d\]	2a/]
2C/	2c\	2e\	1g
1D	1A	2.d\	.
.	.	.	2f#/
.	.	4c\	.
=132	=132	=132	=132
[0GG	1G	4B\	0g
.	.	4A/	.
.	.	4G/	.
.	.	4A/	.
.	1r	4B\	.
.	.	4c\	.
.	.	[2d\	.
=133	=133	=133	=133
!!pagebreak:default
0GG]	0G	4d\]	0r
.	.	4c\	.
.	.	4B\	.
.	.	4A/	.
.	.	1B	.
=134	=134	=134	=134
1C	1G	0c	0g
1r	1E	.	.
=135	=135	=135	=135
0C	1.E	0r	1g
.	.	.	1e
.	2F/	.	.
=136	=136	=136	=136
1C	1G	0c	0e
1AA	1A	.	.
=137	=137	=137	=137
0AA	0E	1c	0cc
.	.	1A	.
=138	=138	=138	=138
1r	0r	0A	1cc
2r	.	.	1a
[2A\	.	.	.
=139	=139	=139	=139
2A\]	2r	0r	1a
2F\	2A/	.	.
2G\	2B\	.	1r
[2A\	2c\	.	.
=140	=140	=140	=140
2A\]	2A/	0r	0r
4G\	1d	.	.
4F\	.	.	.
1E	.	.	.
.	2c#\	.	.
=141	=141	=141	=141
!!linebreak:default
0D	0d	1r	1a
.	.	2r	2a/
.	.	2A/	2f/
=142	=142	=142	=142
0r	1r	2B\	2g/
.	.	2c\	1a
.	2r	2A/	.
.	2D/	2d\	4g/
.	.	.	4f/
=143	=143	=143	=143
0r	2E/	2c\	2e/
.	2F/	1d	2d/
.	2G/	.	1e
.	[2A/	2c#\	.
=144	=144	=144	=144
1D	2A/]	1d	2d/
.	2F/	.	2a/
2E\	2G/	2r	2g/
[2D\	2A/	2A/	[2f/
=145	=145	=145	=145
2D\]	2D/	2B\	2f/]
2C/	2E/	2c\	1e
1D	1F	1A	.
.	.	.	2d/
=146	=146	=146	=146
1.G	1E	0B	1e
.	[1G	.	1r
2E\	.	.	.
=147	=147	=147	=147
1E	2G/]	2r	1g
.	2E/	2B\	.
2r	1E	2B\	2.g/
2E\	.	2B\	.
.	.	.	4a/
=148	=148	=148	=148
2E\	0r	2G/	2b\
2C/	.	2G/	1cc
2D\	.	2.A/	.
[2E\	.	.	4b\
.	.	[4B\	4a/
=149	=149	=149	=149
!!pagebreak:default
1E]	0r	2B\]	1g
.	.	2A/	.
2F\	.	[2c\	2r
[2E\	.	2r	[2g/
=150	=150	=150	=150
2E\]	0r	2c\	2g/]
4D\	.	4B\	2a/
4C/	.	4A/	.
1BB	.	1G	1b
=151	=151	=151	=151
1AA	1C	1A	1e
1r	[1F	2r	[1a
.	.	[2c\	.
=152	=152	=152	=152
1AA	2F/]	2c\]	1a]
.	2F/	2c\	.
2AA/	2E/	2c\	1a
2AA/	2E/	[2c\	.
=153	=153	=153	=153
1AA	1F	2c\]	2a/
.	.	2A/	2cc\
2GG/	2G/	2B\	2b\
[2AA/	[2C/	[2e\	[2a/
=154	=154	=154	=154
4AA/]	4C/]	4e\]	2a/]
4BB/	4D/	4d\	.
4C/	4E/	1c	4g/
4D\	4F/	.	4f/
2E\	1G	.	2e/
2G\	.	2B\	2d/
=155	=155	=155	=155
2F\	2A/	1c	2a/
2E\	1c	.	2g/
1D	.	1d	1f
.	2B\	.	.
=156	=156	=156	=156
1C	0c	1G	0e
1r	.	1r	.
=157	=157	=157	=157
!!linebreak:default
1.C	2r	1.c	2r
.	1G	.	1e
2C/	2G/	2c\	2e/
=158	=158	=158	=158
1C	1G	1c	1e
1C	1G	1c	1e
=159	=159	=159	=159
1.F	1.A	1.d	1.f
2C/	2G/	2c\	2e/
=160	=160	=160	=160
1C	1G	1c	1e
2r	2r	2r	2r
2C/	2G/	2c\	2e/
=161	=161	=161	=161
2C/	2G/	2c\	2e/
2C/	2G/	2c\	2e/
1D	1F	2A/	1f
.	.	2B\	.
=162	=162	=162	=162
2.C/	[0G	1c	2e/
.	.	.	[2g/
4D\	.	.	.
2E\	.	2B\	4g/]
.	.	.	4f/
[2C/	.	[2e\	4e/
.	.	.	4d/
=163	=163	=163	=163
2C/]	0G]	2e\]	2c/
4BB/	.	4d\	1cc
4AA/	.	4c\	.
1GG	.	1d	.
.	.	.	2b\
=164	=164	=164	=164
0r	2r	0c	1cc
.	1F	.	.
.	.	.	2r
.	2E/	.	[2cc\
=165	=165	=165	=165
!!pagebreak:default
0r	1D	1r	2cc\]
.	.	.	2b\
.	1C	2r	1a
.	.	[2c\	.
=166	=166	=166	=166
2r	0r	2c\]	1g
1G	.	2B\	.
.	.	1A	1r
2F\	.	.	.
=167	=167	=167	=167
1E	1G	1G	0r
1D	1A	1r	.
=168	=168	=168	=168
0r	1G	0r	1g
.	[1c	.	1a
=169	=169	=169	=169
1r	2c\]	1r	1g
.	2c\	.	.
1C	1c	2r	[1cc
.	.	2G/	.
=170	=170	=170	=170
1C	1r	2G/	2cc\]
.	.	2G/	2cc\
1C	1G	[1c	1cc
=171	=171	=171	=171
1.F	2A/	2c\]	2.cc\
.	[2c\	2c\	.
.	.	.	4b\
.	4c\]	2.c\	4a/
.	4B\	.	4g/
2F\	4A/	.	[2a/
.	4G/	4B\	.
=172	=172	=172	=172
1F	2F/	2A/	2a/]
.	1A	1d	4g/
.	.	.	4f/
1E	.	.	1g
.	2G/	2c#\	.
=173	=173	=173	=173
!!linebreak:default
1D	[0A	1d	1f
2C/	.	1r	2e/
[2D\	.	.	[2f/
=174	=174	=174	=174
2D\]	0A]	0r	2f/]
4C/	.	.	4e/
4BB/	.	.	4d/
2C/	.	.	2e/
2D\	.	.	2f/
=175	=175	=175	=175
1GG	2.B\	1.D	2.g/
.	4c\	.	4a/
1r	2d\	.	2b\
.	[2c\	[2F/	[2a/
=176	=176	=176	=176
0r	2c\]	2F/]	2a/]
.	2B\	2G/	1g
.	1A	1D	.
.	.	.	2f#/
=177	=177	=177	=177
0C	[0G	0G	[0g
=178	=178	=178	=178
1C	0G]	0r	0g]
1BB	.	.	.
=179	=179	=179	=179
4AA/	0r	0c	0r
4BB/	.	.	.
4C/	.	.	.
4D\	.	.	.
2E\	.	.	.
2F\	.	.	.
=180	=180	=180	=180
2E\	0r	1c	0r
1A	.	.	.
.	.	1B	.
2G#\	.	.	.
=181	=181	=181	=181
!!pagebreak:default
0A	0F	4A/	0r
.	.	4G/	.
.	.	4A/	.
.	.	4B\	.
.	.	2c\	.
.	.	2d\	.
=182	=182	=182	=182
0r	1F	2A/	0r
.	.	1d	.
.	1E	.	.
.	.	[2c#\	.
=183	=183	=183	=183
0D	4D/	0c#] 0d	0f
.	4E/	.	.
.	4F/	.	.
.	4G/	.	.
.	2A/	.	.
.	2B\	.	.
=184	=184	=184	=184
1D	2A/	0r	1f
.	1d	.	.
1A	.	.	1e
.	2c#\	.	.
=185	=185	=185	=185
2.D\	0d	0r	4d/
.	.	.	4e/
.	.	.	4f/
4E\	.	.	4g/
2F\	.	.	2a/
2G\	.	.	2b\
=186	=186	=186	=186
1D	2r	2.d\	2a/
.	[2D/	.	1dd
.	.	4c\	.
1r	4D/]	2B\	.
.	4E/	.	.
.	[2F/	2A/	2cc\
=187	=187	=187	=187
0r	2F/] 2G/	2d\	2b\
.	2A/	2c\	1a
.	1E	1B	.
.	.	.	2g#/
=188	=188	=188	=188
1.D	0A	1A	0a
.	.	1r	.
2D\	.	.	.
=189	=189	=189	=189
!!linebreak:default
1D	0r	1.A	2a/
.	.	.	2r
1C	.	.	1r
.	.	2A/	.
=190	=190	=190	=190
1F	0r	1A	0r
1E	.	1G	.
=191	=191	=191	=191
2r	0r	1c	0r
1AA	.	.	.
.	.	1B	.
2GG/	.	.	.
=192	=192	=192	=192
2.C/	0r	2r	0r
.	.	1E	.
4D\	.	.	.
2E\	.	.	.
2F\	.	2D/	.
=193	=193	=193	=193
2E\	0r	2.G/	0r
2C/	.	.	.
.	.	4A/	.
2D\	.	2B\	.
[2E\	.	[2c\	.
=194	=194	=194	=194
4E\]	0r	2B\ 2c\]	0r
4D\	.	.	.
2C/	.	1A	.
1BB	.	.	.
.	.	2G#/	.
=195	=195	=195	=195
1AA	1.E	1A	1.cc
2r	.	2r	.
[2AA/	2E/	[2A/	2cc\
=196	=196	=196	=196
2AA/]	1E	2A/]	1cc
2AA/	.	2A/	.
2AA/	1E	2A/	1cc
2AA/	.	2A/	.
=197	=197	=197	=197
!!pagebreak:default
1GG	1G	1d	1b
1GG	1G	1d	1g
=198	=198	=198	=198
0D	0F	0d	1a
.	.	.	1b
=199	=199	=199	=199
1C	1E	0G	1cc
1E	1C	.	2r
.	.	.	2g/
=200	=200	=200	=200
1.D	1.F	2r	1a
.	.	4D/	.
.	.	4E/	.
.	.	4F/	[1a
.	.	4G/	.
[2C/	[2E/	[2A/	.
=201	=201	=201	=201
2C/]	2E/]	2A/]	2a/]
2BB/	1D	1G	2b\
1AA	.	.	1cc
.	2C/	2F#/	.
=202	=202	=202	=202
1GG	1D	1G	1b
1r	[1G	1E	1r
=203	=203	=203	=203
1.C	1G]	2r	1.e
.	.	2E/	.
.	1c	1A	.
2D\	.	.	2f/
=204	=204	=204	=204
1E	1B	1G	1g
1F	1A	2c\	[1a
.	.	2d\	.
=205	=205	=205	=205
!!linebreak:default
0E	0B	0e	1a]
.	.	.	1g#
=206	=206	=206	=206
1AA	0A	0c	1a
[1A	.	.	[1cc
=207	=207	=207	=207
1A]	1r	1r	2cc\]
.	.	.	2b\
1F	1D	1A	1a
=208	=208	=208	=208
1G	1E	1c	1g
1A	1F	1d	1f
=209	=209	=209	=209
1E	1.C	1.e	1.g
[1G	.	.	.
.	2D/	2d\	2f/
=210	=210	=210	=210
2G\]	2E/	2.c\	2e/
2F\	2F/	.	2d/
.	.	8B/L	.
.	.	8A/J	.
2E\	1G	1B	1e
2D\	.	.	.
=211	=211	=211	=211
2C/	1E	2A/	[0e
2BB/	.	2G/	.
1AA	[1A	[1c	.
=212	=212	=212	=212
1.C	2A/]	2c\]	0e_
.	4G/	4B\	.
.	4F/	4A/	.
.	2E/	2G/	.
4BB/	2F/	2A/	.
4AA/	.	.	.
=213	=213	=213	=213
!!pagebreak:default
1GG	1G	1B	0e_
1AA	1C	1c	.
=214	=214	=214	=214
[0EE	1.G	[0B	0e_
.	2E/	.	.
=215	=215	=215	=215
0EE]	0E	0B]	0e]
==	==	==	==
*-	*-	*-	*-
